images/menu.svg

<svg width="36" height="36" viewBox="0 0 36 36" fill="none" xmlns="http://www.w3.org/2000/svg">
<path d="M4.5 27V24.75H31.5V27H4.5ZM4.5 19.125V16.875H31.5V19.125H4.5ZM4.5 11.25V9H31.5V11.25H4.5Z" fill="#F7F7F7"/>
</svg>

<svg xmlns="http://www.w3.org/2000/svg" width="36" height="36" fill="none"><path fill="#F7F7F7" d="M4.5 27v-2.25h27V27h-27Zm0-7.875v-2.25h27v2.25h-27Zm0-7.875V9h27v2.25h-27Z"/></svg>
